icons/svg/text-table_16.svg

<?xml version="1.0" encoding="UTF-8"?>
<svg width="16px" height="16px" viewBox="0 0 16 16" version="1.1" xmlns="http://www.w3.org/2000/svg" xmlns:xlink="http://www.w3.org/1999/xlink">
    <!-- Generator: Sketch 60.1 (88133) - https://sketch.com -->
    <title>chat/text-table_16</title>
    <desc>Created with Sketch.</desc>
    <g id="chat/text-table_16" stroke="none" stroke-width="1" fill="none" fill-rule="evenodd">
        <path d="M14,1.9995 L11,1.9995 L10,1.9995 L6,1.9995 L5,1.9995 L2,1.9995 C0.896,1.9995 0,2.8955 0,3.9995 L0,5.6665 L0,6.6665 L0,9.3335 L0,10.3335 L0,11.9995 C0,13.1055 0.896,13.9995 2,13.9995 L14,13.9995 C15.104,13.9995 16,13.1055 16,11.9995 L16,10.3335 L16,9.3335 L16,6.6665 L16,5.6665 L16,3.9995 C16,2.8955 15.104,1.9995 14,1.9995 L14,1.9995 Z M15,11.9995 C15,12.5515 14.552,12.9995 14,12.9995 L11,12.9995 L11,10.3335 L15,10.3335 L15,11.9995 Z M6,12.9995 L10,12.9995 L10,10.3325 L6,10.3325 L6,12.9995 Z M1,11.9995 L1,10.3335 L5,10.3335 L5,12.9995 L2,12.9995 C1.448,12.9995 1,12.5515 1,11.9995 L1,11.9995 Z M11,9.3335 L15,9.3335 L15,6.6665 L11,6.6665 L11,9.3335 Z M6,9.3335 L10,9.3335 L10,6.6665 L6,6.6665 L6,9.3335 Z M1,9.3335 L5,9.3335 L5,6.6665 L1,6.6665 L1,9.3335 Z M11,5.6665 L11,2.9995 L14,2.9995 C14.552,2.9995 15,3.4485 15,3.9995 L15,5.6665 L11,5.6665 Z M6,5.6665 L10,5.6665 L10,2.9995 L6,2.9995 L6,5.6665 Z M1,3.9995 C1,3.4485 1.448,2.9995 2,2.9995 L5,2.9995 L5,5.6665 L1,5.6665 L1,3.9995 Z" id="fill" fill="#171B1F"></path>
    </g>
</svg>

<svg width="16" height="16" viewBox="0 0 16 16" xmlns="http://www.w3.org/2000/svg"><title>chat/text-table_16</title><path d="M11 5.6665l0-2.667 3 0c.552 0 1 .449 1 1l0 1.667-4 0zm0 3.667l4 0 0-2.667-4 0 0 2.667zm4 2.666c0 .552-.448 1-1 1l-3 0 0-2.666 4 0 0 1.666zm-14 0l0-1.666 4 0 0 2.666-3 0c-.552 0-1-.448-1-1zm0-2.666l4 0 0-2.667-4 0 0 2.667zm0-5.334c0-.551.448-1 1-1l3 0 0 2.667-4 0 0-1.667zm5 9l4 0 0-2.667-4 0 0 2.667zm0-3.666l4 0 0-2.667-4 0 0 2.667zm0-3.667l4 0 0-2.667-4 0 0 2.667zm8-3.667l-3 0-1 0-4 0-1 0-3 0c-1.104 0-2 .896-2 2l0 1.667 0 1 0 2.667 0 1 0 1.666c0 1.106.896 2 2 2l12 0c1.104 0 2-.894 2-2l0-1.666 0-1 0-2.667 0-1 0-1.667c0-1.104-.896-2-2-2z" fill="#000" fill-rule="evenodd"/></svg>
